X:1
T:Ghostly Tune
M:4/4
L:1/8
R:Waltz
K:Cmaj
|: (3def g2 a2 | b2 a2 g2 f2 | e4 d2 c2 | B,2 A,2 G,2 F,2 :|
|: (3cde f2 g2 | a2 g2 f2 e2 | d4 c2 B,2 | A,2 G,2 F,2 E,2 :|